X: 14689
T: Gan Ainm
R: reel
M: 4/4
K: Cmajor
|:A|defe dcAF|G^FGA D2 DE|FEFG DEFG|Add^c d2 (3e^fg|
aAgA dcAF|G2 AG FDEC|A,DDE FAda|g^fga d3:|
|:c|dcAF G G3|G^FGA G=FDG,|A,DDE DCA,C|DEFG Ad d2|
Add^c d2 Ad|dcAG FDEG,|A,DDE FAda|g^fga d3:|

